assets/img/braze_icons/clock-plus.svg

<svg fill="none" height="24" viewBox="0 0 24 24" width="24" xmlns="http://www.w3.org/2000/svg"><g fill="#801ed7"><path clip-rule="evenodd" d="m1 12c0-6.07513 4.92487-11 11-11 6.0751 0 11 4.92487 11 11 0 .583-.0454 1.1555-.1327 1.714-.0728.4649-.1092.6974-.2014.8051-.0988.1155-.1663.1519-.3171.1709-.1407.0178-.4631-.1288-1.108-.4222-.3781-.172-.7983-.2678-1.2408-.2678-1.6569 0-3 1.3431-3 3-1.6569 0-3 1.3431-3 3 0 .4425.0958.8627.2678 1.2408.2934.6449.44.9673.4222 1.108-.019.1508-.0554.2183-.1709.3171-.1077.0922-.3402.1286-.8051.2014-.5585.0873-1.131.1327-1.714.1327-6.07513 0-11-4.9249-11-11zm12-6c0-.55228-.4477-1-1-1s-1 .44772-1 1v6c0 .3788.214.725.5528.8944l4 2c.494.247 1.0946.0468 1.3416-.4472s.0468-1.0946-.4472-1.3416l-3.4472-1.7236z" fill-rule="evenodd"/><path d="m21 17c0-.5523-.4477-1-1-1s-1 .4477-1 1v2h-2c-.5523 0-1 .4477-1 1s.4477 1 1 1h2v2c0 .5523.4477 1 1 1s1-.4477 1-1v-2h2c.5523 0 1-.4477 1-1s-.4477-1-1-1h-2z"/></g></svg>

<svg width="24" height="24" viewBox="0 0 24 24" fill="none" xmlns="http://www.w3.org/2000/svg">
<path fill-rule="evenodd" clip-rule="evenodd" d="M1 12C1 5.92487 5.92487 1 12 1C18.0751 1 23 5.92487 23 12C23 12.583 22.9546 13.1555 22.8673 13.714C22.7945 14.1789 22.7581 14.4114 22.6659 14.5191C22.5671 14.6346 22.4996 14.671 22.3488 14.69C22.2081 14.7078 21.8857 14.5612 21.2408 14.2678C20.8627 14.0958 20.4425 14 20 14C18.3431 14 17 15.3431 17 17C15.3431 17 14 18.3431 14 20C14 20.4425 14.0958 20.8627 14.2678 21.2408C14.5612 21.8857 14.7078 22.2081 14.69 22.3488C14.671 22.4996 14.6346 22.5671 14.5191 22.6659C14.4114 22.7581 14.1789 22.7945 13.714 22.8673C13.1555 22.9546 12.583 23 12 23C5.92487 23 1 18.0751 1 12ZM13 6C13 5.44772 12.5523 5 12 5C11.4477 5 11 5.44772 11 6V12C11 12.3788 11.214 12.725 11.5528 12.8944L15.5528 14.8944C16.0468 15.1414 16.6474 14.9412 16.8944 14.4472C17.1414 13.9532 16.9412 13.3526 16.4472 13.1056L13 11.382V6Z" fill="#801ED7"/>
<path d="M21 17C21 16.4477 20.5523 16 20 16C19.4477 16 19 16.4477 19 17V19H17C16.4477 19 16 19.4477 16 20C16 20.5523 16.4477 21 17 21H19V23C19 23.5523 19.4477 24 20 24C20.5523 24 21 23.5523 21 23V21H23C23.5523 21 24 20.5523 24 20C24 19.4477 23.5523 19 23 19H21V17Z" fill="#801ED7"/>
</svg>
